X:175
T: Három hete, hogy a tiszán halászok
O:Hidegségszáda, 1975
Q: "Tempo guisto" 1/4=100
M:4/4
L:1/4
K:F
g/f/f/f/ a/f/f/f/ | B<c B z | 
g/f/f/f/ a/f/f/f/ | B<c B z | 
G/G/B/B/ c/c/c/B/ | G<A B z | 
d/d/g/f/ g/d/d/c/ | B<G G z | 

